libs/ui/packages/crypto-icons/src/svg/PART.svg

<svg width="24" height="24" viewBox="0 0 24 24" fill="none">
<path d="M11.5682 4.61965C12.0512 4.40965 12.3962 4.85515 12.6947 5.15365C13.2272 5.6059 13.7342 6.08665 14.2142 6.59365C14.4894 6.8944 14.3777 7.44415 14.0034 7.6114C13.7154 7.7689 13.3637 7.6504 13.1432 7.4314C12.5634 6.8764 12.0092 6.29365 11.4077 5.7634C11.0342 5.45815 11.1107 4.7959 11.5682 4.61965ZM16.8437 6.1579C17.1714 5.98165 17.6964 6.1249 17.7872 6.51565C17.9259 6.8629 17.7032 7.20565 17.4587 7.4374C16.9224 7.96615 16.4012 8.5099 15.8799 9.0544C15.6902 9.2839 15.3549 9.3454 15.0864 9.22165C14.6987 9.06115 14.5937 8.47915 14.8862 8.18365C15.5439 7.51465 16.1244 6.76465 16.8437 6.15865V6.1579ZM6.36769 6.2659C6.70894 6.05965 7.13119 6.19615 7.38394 6.4759C7.95244 7.04965 8.53894 7.6039 9.11269 8.16865C9.49294 8.51965 9.22744 9.26365 8.69719 9.26665C8.25319 9.33415 8.01769 8.8954 7.72069 8.6554C7.20019 8.22415 6.72319 7.74415 6.25069 7.2604C5.98369 6.98515 6.06319 6.47965 6.36844 6.2659H6.36769ZM6.80869 9.6559C7.38094 9.43465 7.93969 10.1561 7.58269 10.6534C7.16044 11.2039 6.61069 11.6471 6.15019 12.1669C5.87794 12.4466 5.62519 12.8771 5.17144 12.8224C4.64119 12.8021 4.37494 12.0649 4.76044 11.7071C5.45719 11.0404 6.00994 10.1974 6.80944 9.65515L6.80869 9.6559ZM18.4157 11.2511C18.8094 10.9939 19.4034 11.2864 19.4162 11.7611C19.4739 12.2066 19.0314 12.4421 18.7877 12.7421C18.3587 13.2581 17.8877 13.7396 17.4017 14.2031C17.0462 14.5384 16.3832 14.3029 16.3194 13.8169C16.2362 13.3151 16.7072 13.0039 17.0042 12.6829C17.4962 12.2261 17.9117 11.6884 18.4157 11.2511ZM8.30194 14.7799C8.68444 14.5511 9.26419 14.8226 9.27319 15.2869C9.34444 15.7354 8.90119 15.9731 8.65894 16.2724C8.23144 16.7899 7.75444 17.2646 7.27294 17.7334C6.96019 18.0499 6.29269 17.8976 6.20419 17.4439C6.05269 17.0051 6.42469 16.6519 6.70819 16.3766C7.25794 15.8621 7.73569 15.2741 8.30194 14.7799ZM15.0984 14.7626C15.3099 14.6899 15.5784 14.6839 15.7569 14.8369C16.4192 15.4661 17.1242 16.0504 17.7467 16.7224C17.9387 16.9174 17.9559 17.2436 17.8284 17.4776C17.6484 17.8984 17.0319 17.9089 16.7327 17.6111C16.1282 17.0411 15.5477 16.4419 14.9402 15.8741C14.5727 15.5891 14.6589 14.9276 15.0977 14.7626H15.0984ZM9.99844 16.3714C10.3134 16.2011 10.6839 16.3624 10.9104 16.6024C11.478 17.1729 12.0566 17.7323 12.6459 18.2801C13.0359 18.6506 12.7719 19.4029 12.2222 19.4089C11.7782 19.4614 11.5472 19.0204 11.2494 18.7789C10.7355 18.3451 10.2472 17.8818 9.78694 17.3914C9.50644 17.0929 9.62044 16.5364 9.99844 16.3714ZM8.98594 5.19115C8.98594 5.3638 8.91736 5.52939 8.79527 5.65147C8.67318 5.77356 8.5076 5.84215 8.33494 5.84215C8.16229 5.84215 7.9967 5.77356 7.87462 5.65147C7.75253 5.52939 7.68394 5.3638 7.68394 5.19115C7.68967 5.02241 7.76073 4.86251 7.88212 4.74517C8.00351 4.62783 8.16574 4.56224 8.33457 4.56224C8.5034 4.56224 8.66563 4.62783 8.78702 4.74517C8.90841 4.86251 8.97946 5.02241 8.98519 5.19115H8.98594ZM10.8819 6.92215C10.8819 7.0947 10.8134 7.26019 10.6914 7.38221C10.5694 7.50422 10.4039 7.57277 10.2313 7.57277C10.0588 7.57277 9.89327 7.50422 9.77126 7.38221C9.64924 7.26019 9.58069 7.0947 9.58069 6.92215C9.58069 6.74959 9.64924 6.5841 9.77126 6.46209C9.89327 6.34007 10.0588 6.27152 10.2313 6.27152C10.4039 6.27152 10.5694 6.34007 10.6914 6.46209C10.8134 6.5841 10.8819 6.74959 10.8819 6.92215ZM5.80144 8.51215C5.80441 8.59945 5.78977 8.68645 5.75841 8.76798C5.72705 8.8495 5.6796 8.92388 5.61889 8.98669C5.55818 9.04949 5.48545 9.09944 5.40504 9.13355C5.32462 9.16766 5.23817 9.18524 5.15082 9.18524C5.06347 9.18524 4.97701 9.16766 4.8966 9.13355C4.81618 9.09944 4.74345 9.04949 4.68274 8.98669C4.62204 8.92388 4.57459 8.8495 4.54322 8.76798C4.51186 8.68645 4.49723 8.59945 4.50019 8.51215C4.50592 8.34341 4.57698 8.18351 4.69837 8.06617C4.81976 7.94883 4.98199 7.88324 5.15082 7.88324C5.31965 7.88324 5.48188 7.94883 5.60327 8.06617C5.72466 8.18351 5.79571 8.34341 5.80144 8.51215ZM16.1304 5.1394C16.1304 5.31205 16.0619 5.47764 15.9398 5.59972C15.8177 5.72181 15.6521 5.7904 15.4794 5.7904C15.3068 5.7904 15.1412 5.72181 15.0191 5.59972C14.897 5.47764 14.8284 5.31205 14.8284 5.1394C14.8284 4.96664 14.8971 4.80096 15.0192 4.67881C15.1414 4.55665 15.3071 4.48802 15.4798 4.48802C15.6526 4.48802 15.8183 4.55665 15.9404 4.67881C16.0626 4.80096 16.1312 4.96664 16.1312 5.1394H16.1304ZM19.5002 8.3494C19.5002 8.52195 19.4316 8.68744 19.3096 8.80946C19.1876 8.93147 19.0221 9.00002 18.8496 9.00002C18.677 9.00002 18.5115 8.93147 18.3895 8.80946C18.2675 8.68744 18.1989 8.52195 18.1989 8.3494C18.1989 8.17684 18.2675 8.01135 18.3895 7.88934C18.5115 7.76732 18.677 7.69877 18.8496 7.69877C19.0221 7.69877 19.1876 7.76732 19.3096 7.88934C19.4316 8.01135 19.5002 8.17684 19.5002 8.3494ZM17.7219 10.2184C17.7219 10.391 17.6534 10.5564 17.5314 10.6785C17.4094 10.8005 17.2439 10.869 17.0713 10.869C16.8988 10.869 16.7333 10.8005 16.6113 10.6785C16.4892 10.5564 16.4207 10.391 16.4207 10.2184C16.4207 10.0458 16.4892 9.88035 16.6113 9.75833C16.7333 9.63632 16.8988 9.56777 17.0713 9.56777C17.2439 9.56777 17.4094 9.63632 17.5314 9.75833C17.6534 9.88035 17.7219 10.0458 17.7219 10.2184ZM19.4972 15.4729C19.4972 15.6455 19.4286 15.8109 19.3066 15.933C19.1846 16.055 19.0191 16.1235 18.8466 16.1235C18.674 16.1235 18.5085 16.055 18.3865 15.933C18.2645 15.8109 18.1959 15.6455 18.1959 15.4729C18.1959 15.3003 18.2645 15.1348 18.3865 15.0128C18.5085 14.8908 18.674 14.8223 18.8466 14.8223C19.0191 14.8223 19.1846 14.8908 19.3066 15.0128C19.4286 15.1348 19.4972 15.3003 19.4972 15.4729ZM14.4227 17.0599C14.4257 17.1472 14.411 17.2342 14.3797 17.3157C14.3483 17.3973 14.3008 17.4716 14.2401 17.5344C14.1794 17.5972 14.1067 17.6472 14.0263 17.6813C13.9459 17.7154 13.8594 17.733 13.7721 17.733C13.6847 17.733 13.5983 17.7154 13.5178 17.6813C13.4374 17.6472 13.3647 17.5972 13.304 17.5344C13.2433 17.4716 13.1958 17.3973 13.1645 17.3157C13.1331 17.2342 13.1185 17.1472 13.1214 17.0599C13.1272 16.8912 13.1982 16.7313 13.3196 16.6139C13.441 16.4966 13.6032 16.431 13.7721 16.431C13.9409 16.431 14.1031 16.4966 14.2245 16.6139C14.3459 16.7313 14.417 16.8912 14.4227 17.0599ZM16.2947 18.8389C16.2977 18.9262 16.283 19.0132 16.2517 19.0947C16.2203 19.1763 16.1729 19.2506 16.1121 19.3134C16.0514 19.3762 15.9787 19.4262 15.8983 19.4603C15.8179 19.4944 15.7314 19.512 15.6441 19.512C15.5567 19.512 15.4703 19.4944 15.3898 19.4603C15.3094 19.4262 15.2367 19.3762 15.176 19.3134C15.1153 19.2506 15.0678 19.1763 15.0365 19.0947C15.0051 19.0132 14.9905 18.9262 14.9934 18.8389C14.9992 18.6702 15.0702 18.5103 15.1916 18.3929C15.313 18.2756 15.4752 18.21 15.6441 18.21C15.8129 18.21 15.9751 18.2756 16.0965 18.3929C16.2179 18.5103 16.289 18.6702 16.2947 18.8389ZM9.16969 18.8389C9.16969 19.0116 9.10111 19.1771 8.97902 19.2992C8.85693 19.4213 8.69135 19.4899 8.51869 19.4899C8.34604 19.4899 8.18045 19.4213 8.05837 19.2992C7.93628 19.1771 7.86769 19.0116 7.86769 18.8389C7.87342 18.6702 7.94448 18.5103 8.06587 18.3929C8.18726 18.2756 8.34949 18.21 8.51832 18.21C8.68715 18.21 8.84938 18.2756 8.97077 18.3929C9.09216 18.5103 9.16321 18.6702 9.16894 18.8389H9.16969ZM7.58194 13.7434C7.58491 13.8307 7.57027 13.9177 7.53891 13.9992C7.50755 14.0808 7.4601 14.1551 7.39939 14.2179C7.33868 14.2807 7.26595 14.3307 7.18554 14.3648C7.10512 14.3989 7.01867 14.4165 6.93132 14.4165C6.84397 14.4165 6.75751 14.3989 6.6771 14.3648C6.59668 14.3307 6.52395 14.2807 6.46324 14.2179C6.40254 14.1551 6.35509 14.0808 6.32373 13.9992C6.29236 13.9177 6.27773 13.8307 6.28069 13.7434C6.28642 13.5747 6.35748 13.4148 6.47887 13.2974C6.60026 13.1801 6.76249 13.1145 6.93132 13.1145C7.10015 13.1145 7.26238 13.1801 7.38377 13.2974C7.50516 13.4148 7.57621 13.5747 7.58194 13.7434ZM5.80144 15.6341C5.80441 15.7214 5.78977 15.8084 5.75841 15.89C5.72705 15.9715 5.6796 16.0459 5.61889 16.1087C5.55818 16.1715 5.48545 16.2214 5.40504 16.2555C5.32462 16.2897 5.23817 16.3072 5.15082 16.3072C5.06347 16.3072 4.97701 16.2897 4.8966 16.2555C4.81618 16.2214 4.74345 16.1715 4.68274 16.1087C4.62204 16.0459 4.57459 15.9715 4.54322 15.89C4.51186 15.8084 4.49723 15.7214 4.50019 15.6341C4.50592 15.4654 4.57698 15.3055 4.69837 15.1882C4.81976 15.0708 4.98199 15.0052 5.15082 15.0052C5.31965 15.0052 5.48188 15.0708 5.60327 15.1882C5.72466 15.3055 5.79571 15.4654 5.80144 15.6341Z" fill="#03E8B0"/>
</svg>

<svg width="24" height="24" viewBox="0 0 24 24" fill="none"><path fill="#03e8b0" d="M11.568 4.62c.483-.21.828.235 1.127.534q.799.679 1.52 1.44c.274.3.163.85-.212 1.017-.288.158-.64.04-.86-.18-.58-.555-1.134-1.137-1.735-1.668-.374-.305-.297-.967.16-1.143m5.276 1.538c.327-.176.852-.033.943.358.139.347-.084.69-.328.921a78 78 0 0 0-1.58 1.617.674.674 0 0 1-.793.168c-.387-.16-.492-.743-.2-1.038.658-.67 1.238-1.42 1.958-2.025zm-10.476.108c.34-.206.763-.07 1.016.21.568.574 1.155 1.128 1.729 1.693.38.35.114 1.095-.416 1.098-.444.067-.68-.372-.976-.612-.52-.43-.998-.91-1.47-1.395-.267-.275-.188-.78.117-.994m.44 3.39c.573-.221 1.132.5.775.997-.423.55-.972.994-1.433 1.514-.272.28-.525.71-.979.655-.53-.02-.796-.757-.41-1.115.696-.667 1.249-1.51 2.048-2.052m11.608 1.595c.393-.257.987.035 1 .51.058.446-.385.681-.628.981-.43.516-.9.998-1.386 1.461-.356.335-1.019.1-1.083-.386-.083-.502.388-.813.685-1.134.492-.457.908-.995 1.412-1.432M8.302 14.78c.382-.229.962.043.971.507.071.448-.372.686-.614.985-.428.518-.905.993-1.386 1.461-.313.317-.98.165-1.069-.29-.151-.438.22-.791.504-1.066.55-.515 1.028-1.103 1.594-1.597m6.796-.017c.212-.073.48-.08.659.074.662.63 1.367 1.213 1.99 1.885.192.195.209.522.081.756-.18.42-.796.43-1.095.133-.605-.57-1.185-1.17-1.793-1.737-.367-.285-.281-.946.158-1.111m-5.1 1.608c.315-.17.686-.009.912.231q.852.855 1.736 1.678c.39.37.126 1.123-.424 1.129-.444.052-.675-.389-.973-.63a17 17 0 0 1-1.462-1.388c-.28-.298-.167-.855.211-1.02M8.986 5.191a.651.651 0 1 1-1.302 0 .651.651 0 0 1 1.301 0m1.896 1.731a.65.65 0 1 1-1.301 0 .65.65 0 0 1 1.3 0M5.8 8.512a.651.651 0 1 1-1.302.044.651.651 0 0 1 1.301-.044M16.13 5.14a.65.65 0 1 1-1.303 0 .65.65 0 0 1 1.304 0m3.37 3.21a.65.65 0 1 1-1.301 0 .65.65 0 0 1 1.301 0m-1.778 1.87a.65.65 0 1 1-1.302 0 .65.65 0 0 1 1.302 0m1.775 5.254a.65.65 0 1 1-1.302 0 .65.65 0 0 1 1.302 0m-5.074 1.587a.651.651 0 1 1-1.302.044.651.651 0 0 1 1.302-.044m1.872 1.779a.651.651 0 1 1-1.302.044.651.651 0 0 1 1.302-.044m-7.125 0a.65.65 0 1 1-1.302 0 .651.651 0 0 1 1.3 0zm-1.588-5.096a.65.65 0 1 1-1.3.045.65.65 0 0 1 1.3-.045m-1.78 1.891a.652.652 0 1 1-1.303.044.652.652 0 0 1 1.302-.044"/></svg>
